findly-builder/apps/searchassist/src/assets/icons/editor/bold-old.svg

<svg width="10" height="13" viewBox="0 0 10 13" fill="none" xmlns="http://www.w3.org/2000/svg">
<path d="M0.455078 12.3548V0.962402H4.28119C5.73371 0.962402 6.84769 1.24795 7.6704 1.76899C8.49312 2.29189 8.88084 3.09848 8.88084 4.09606C8.88084 4.6171 8.73521 5.13999 8.49312 5.52011C8.25103 5.94658 7.81603 6.27849 7.28269 6.46947C7.95977 6.6104 8.49312 6.89595 8.83166 7.37063C9.17021 7.84531 9.31584 8.36821 9.31584 8.93746C9.31584 10.0296 8.92812 10.8825 8.15458 11.4537C7.37914 12.0229 6.31434 12.3548 4.86182 12.3548H0.455078ZM3.11803 5.70924H4.18473C4.81264 5.70924 5.29682 5.61467 5.63725 5.37733C5.97579 5.13999 6.12143 4.80808 6.12143 4.37975C6.12143 3.90507 5.97579 3.52495 5.63725 3.33582C5.29682 3.14669 4.86182 3.00391 4.23201 3.00391H3.11803V5.70924ZM3.11803 7.4652V10.3133H4.86182C5.44245 10.3133 5.87934 10.2187 6.16871 9.98139C6.45997 9.74405 6.6056 9.41214 6.6056 8.93746C6.6056 8.46277 6.45997 8.08266 6.21788 7.84531C5.97579 7.60797 5.5389 7.4652 4.95827 7.4652H3.11803Z" fill="black"/>
</svg>

<svg width="10" height="13" fill="none" xmlns="http://www.w3.org/2000/svg"><path d="M.455 12.355V.962h3.826c1.453 0 2.567.286 3.39.807.822.523 1.21 1.33 1.21 2.327 0 .521-.146 1.044-.388 1.424-.242.427-.677.758-1.21.95.677.14 1.21.426 1.549.9.338.475.484.998.484 1.567 0 1.093-.388 1.946-1.161 2.517-.776.569-1.84.9-3.293.9H.455Zm2.663-6.646h1.067c.628 0 1.112-.094 1.452-.332.339-.237.484-.569.484-.997 0-.475-.145-.855-.484-1.044-.34-.19-.775-.332-1.405-.332H3.118v2.705Zm0 1.756v2.848h1.744c.58 0 1.017-.094 1.307-.332.291-.237.437-.569.437-1.044 0-.474-.146-.854-.388-1.092-.242-.237-.68-.38-1.26-.38h-1.84Z" fill="#000"/></svg>
